X: 1
T: the Brig o' Dee
C: James Young
R: reel
Z: 2009 John Chambers <jc:trillian.mit.edu>
M: C|
L: 1/8
K: D
A,| "D"D2FD "D7"A,DFD |  "G"GBAG "A7"E2EF | "D"D2FD "D7"A,DFD | "G"GB"A7"AF "D"D3 :|
E | "D"Ddcd  "G"BcdB  |  "D"ABAG "A7"EFGE | "D"Ddcd  "G"Bdeg  | "A7"fdec    "D"d3 |]
e | "D"fedc "Bm"BcdB  | "Em"ABAG "A7"EFGE | "D"Ddcd  "G"Bdeg  | "A7"fdec    "D"d3 |]
